X:86
T:O Gin Ye Were Dead,  Gudeman
M:C
L:1/8
B:Chappell's One Hundred Scotch Melodies
B:Arranged for the Concertina by Carlo Minasi
Q:"Allegretto  "1/4=140
Z:Peter Dunk 2012
K:D
!p!A,2|D2D2A2 (D>E)|[F2D2][E2C2][E2C2](F>E)|\
D2D2A2 (D>E)|[F2D2][d2F2][A3F3] A|
([BG]cdA) (FGAF)|([BG][AF][GE][FD]) [E2C2] (FE)|\
D2d2 (ABAG)|L(F3 E D2)||
(A>B)|d2d2 (defd)|(edef) (e2 dB)|\
(ABde) (defe)|d2[A2F2][B2G2][A2F2]|
(BcdA) (FGAG)|(BAGF) (EGFE)|\
D2d2 ([AF][BG][AF][GE])|L(F3 E D2)||

